_includes/icons/color-toolbox.svg

<svg fill="#666" height="50" viewBox="0 0 48 48" width="50" xmlns="http://www.w3.org/2000/svg"><path d="m3 21h42v19h-42z" fill="#ffc107"/><path d="m45 21v-5c0-1.105469-.894531-2-2-2h-38c-1.105469 0-2 .894531-2 2v5z" fill="#455a64"/><path d="m19 14v-4h9v4h2v-4c0-1.105469-.894531-2-2-2h-9c-1.105469 0-2 .894531-2 2v4z" fill="#455a64"/><path d="m9 19h6v9h-6z" fill="#78909c"/><path d="m33 19h6v9h-6z" fill="#78909c"/><g fill="#455a64"><path d="m9 24h6v2h-6z"/><path d="m33 24h6v2h-6z"/></g></svg>

<svg xmlns="http://www.w3.org/2000/svg" viewBox="0 0 48 48" width="50" height="50" fill="#666"><path d="M 3 21 L 45 21 L 45 40 L 3 40 Z" fill="#ffc107"/><path d="M 45 21 L 45 16 C 45 14.894531 44.105469 14 43 14 L 5 14 C 3.894531 14 3 14.894531 3 16 L 3 21 Z" fill="#455a64"/><path d="M 19 14 L 19 10 L 28 10 L 28 14 L 30 14 L 30 10 C 30 8.894531 29.105469 8 28 8 L 19 8 C 17.894531 8 17 8.894531 17 10 L 17 14 Z" fill="#455a64"/><path d="M 9 19 L 15 19 L 15 28 L 9 28 Z" fill="#78909c"/><path d="M 33 19 L 39 19 L 39 28 L 33 28 Z" fill="#78909c"/><path d="M 9 24 L 15 24 L 15 26 L 9 26 Z" fill="#455a64"/><path d="M 33 24 L 39 24 L 39 26 L 33 26 Z" fill="#455a64"/></svg>
